images/brands/mermaid.svg

<svg fill="none" height="180" viewBox="0 0 589 180" width="589" xmlns="http://www.w3.org/2000/svg" xmlns:xlink="http://www.w3.org/1999/xlink"><clipPath id="a"><path d="m57 50h476v80h-476z"/></clipPath><g clip-path="url(#a)" fill="#ff3670"><path d="m213.156 65.149h21.316l8.166 36.048h.182l7.787-36.048h21.413l3.738 58.254h-14.6l-1.905-42.6365h-.181l-10.168 42.6365h-12.978l-10.253-42.6365h-.272l-1.811 42.6365h-14.155z"/><path d="m278.272 100.863c0-14.1855 9.98-23.1967 24.769-23.1967 15.333 0 25.041 9.6796 21.686 27.2007h-31.767c1.726 5.174 6.716 7.427 13.247 7.427 4.99 0 10.435-1.253 14.698-4.004v12.764c-4.718 2.003-10.434 2.838-15.515 2.838-17.147 0-27.118-9.178-27.118-23.029zm33.571-5.592c-.649-4.4221-4.445-6.7584-9.166-6.7584-4.899 0-8.254 2.587-9.707 6.7584z"/><path d="m328.845 78.1676h12.329v3.5806h.181c2.177-2.6855 5.445-4.0044 9.526-4.0044 1.222-.0033 2.441.1107 3.637.3402v13.0931c-1.72-.6852-3.57-1.0532-5.444-1.0831-3.54 0-6.262 1.7515-6.262 6.0065v27.3025h-13.967z"/><path d="m358.512 78.1675h12.329v3.6702h.181c2.995-2.9212 6.626-4.1774 11.071-4.1774 5.262 0 9.434 1.7515 12.066 5.0904h.181c3.086-3.4224 7.258-5.0904 12.329-5.0904 9.435 0 15.425 5.5887 15.425 14.77v30.9727h-13.883v-27.7978c0-3.6702-1.996-5.8394-5.441-5.8394-3.359 0-5.445 2.1692-5.445 5.8394v27.7978h-13.974v-27.7978c0-3.6702-1.995-5.8394-5.444-5.8394s-5.441 2.1692-5.441 5.8394v27.7978h-13.954z"/><path d="m425.306 108.955c0-9.1784 6.352-14.7672 15.424-14.7672 3.54 0 6.625.8325 9.165 2.3364h.182v-1.3368c0-4.5056-3.267-7.0926-9.084-7.0926-4.173 0-8.167 1.3368-11.158 2.8376v-11.0134c4.456-1.5876 9.192-2.4079 13.971-2.4199 12.883 0 20.232 6.1736 20.232 17.6048v28.2991h-12.978v-2.686h-.181c-2.541 2.002-6.165 3.089-10.253 3.089-9.059.002-15.32-5.673-15.32-14.851zm19.599 5.496c3.355 0 5.714-2.253 5.714-5.759 0-3.419-2.359-5.669-5.714-5.669-3.354 0-5.898 2.253-5.898 5.669 0 3.417 2.54 5.759 5.898 5.759z"/><path d="m474.937 61.3953c4.899 0 8.072 2.587 8.072 6.7584s-3.173 6.7584-8.072 6.7584c-4.808 0-8.076-2.587-8.076-6.7584s3.177-6.7584 8.076-6.7584zm-6.989 16.7722h13.974v45.2355h-13.974z"/><path d="m485.053 100.779c0-14.024 9.253-23.1128 21.683-23.1128 4.542 0 8.711 1.1667 11.975 3.336h.182v-17.6047h13.973v60.0055h-12.88v-4.017h-.182c-3.358 3.005-8.257 4.339-13.065 4.339-12.709 0-21.686-9.095-21.686-22.946zm24.495 10.679c5.626 0 9.98-3.92 9.98-10.762 0-6.9259-4.354-10.8467-9.98-10.8467-5.807 0-9.98 4.0879-9.98 10.8467 0 6.758 4.173 10.771 9.98 10.771z"/><path d="m162.426 50.0448c-11.394-.4489-22.647 2.4562-32.122 8.2931-9.476 5.8369-16.68 14.3012-20.565 24.1623-2.672-6.7965-6.943-12.9667-12.5074-18.0702-5.244-4.8331-11.5254-8.6083-18.4438-11.0851-6.9184-2.4767-14.322-3.6006-21.7389-3.3001-.3268 6.8211.8952 13.6301 3.5883 19.9927 2.6931 6.3627 6.7981 12.1395 12.0533 16.9623 2.375 2.1853 4.9655 4.1631 7.738 5.9081 3.865 2.4414 7.0236 5.7135 9.2016 9.5321 2.1779 3.819 3.3094 8.069 3.2961 12.381v15.179h33.6228v-15.179c-.013-4.312 1.119-8.562 3.297-12.38 2.178-3.8189 5.336-7.0912 9.2-9.5331 2.774-1.7434 5.365-3.7214 7.738-5.9081 5.256-4.8223 9.362-10.5991 12.055-16.9619 2.693-6.3627 3.915-13.1719 3.587-19.9931z"/></g></svg>

<svg width="589" height="180" viewBox="0 0 589 180" fill="none" xmlns="http://www.w3.org/2000/svg">
<g clip-path="url(#clip0_332_693)">
<path d="M213.156 65.149H234.472L242.638 101.197H242.82L250.607 65.149H272.02L275.758 123.403H261.158L259.253 80.7665H259.072L248.904 123.403H235.926L225.673 80.7665H225.401L223.59 123.403H209.435L213.156 65.149Z" fill="#FF3670"/>
<path d="M278.272 100.863C278.272 86.6775 288.252 77.6663 303.041 77.6663C318.374 77.6663 328.082 87.3459 324.727 104.867H292.96C294.686 110.041 299.676 112.294 306.207 112.294C311.197 112.294 316.642 111.041 320.905 108.29V121.054C316.187 123.057 310.471 123.892 305.39 123.892C288.243 123.892 278.272 114.714 278.272 100.863ZM311.843 95.271C311.194 90.8489 307.398 88.5126 302.677 88.5126C297.778 88.5126 294.423 91.0996 292.97 95.271H311.843Z" fill="#FF3670"/>
<path d="M328.845 78.1676H341.174V81.7482H341.355C343.532 79.0627 346.8 77.7438 350.881 77.7438C352.103 77.7405 353.322 77.8545 354.518 78.084V91.1771C352.798 90.4919 350.948 90.1239 349.074 90.094C345.534 90.094 342.812 91.8455 342.812 96.1005V123.403H328.845V78.1676Z" fill="#FF3670"/>
<path d="M358.512 78.1675H370.841V81.8377H371.022C374.017 78.9165 377.648 77.6603 382.093 77.6603C387.355 77.6603 391.527 79.4118 394.159 82.7507H394.34C397.426 79.3283 401.598 77.6603 406.669 77.6603C416.104 77.6603 422.094 83.249 422.094 92.4303V123.403H408.211V95.6052C408.211 91.935 406.215 89.7658 402.77 89.7658C399.411 89.7658 397.325 91.935 397.325 95.6052V123.403H383.351V95.6052C383.351 91.935 381.356 89.7658 377.907 89.7658C374.458 89.7658 372.466 91.935 372.466 95.6052V123.403H358.512V78.1675Z" fill="#FF3670"/>
<path d="M425.306 108.955C425.306 99.7766 431.658 94.1878 440.73 94.1878C444.27 94.1878 447.355 95.0203 449.895 96.5242H450.077V95.1874C450.077 90.6818 446.81 88.0948 440.993 88.0948C436.82 88.0948 432.826 89.4316 429.835 90.9324V79.919C434.291 78.3314 439.027 77.5111 443.806 77.4991C456.689 77.4991 464.038 83.6727 464.038 95.1039V123.403H451.06V120.717H450.879C448.338 122.719 444.714 123.806 440.626 123.806C431.567 123.808 425.306 118.133 425.306 108.955ZM444.905 114.451C448.26 114.451 450.619 112.198 450.619 108.692C450.619 105.273 448.26 103.023 444.905 103.023C441.551 103.023 439.007 105.276 439.007 108.692C439.007 112.109 441.547 114.451 444.905 114.451Z" fill="#FF3670"/>
<path d="M474.937 61.3953C479.836 61.3953 483.009 63.9823 483.009 68.1537C483.009 72.3251 479.836 74.9121 474.937 74.9121C470.129 74.9121 466.861 72.3251 466.861 68.1537C466.861 63.9823 470.038 61.3953 474.937 61.3953ZM467.948 78.1675H481.922V123.403H467.948V78.1675Z" fill="#FF3670"/>
<path d="M485.053 100.779C485.053 86.755 494.306 77.6662 506.736 77.6662C511.278 77.6662 515.447 78.8329 518.711 81.0022H518.893V63.3975H532.866V123.403H519.986V119.386H519.804C516.446 122.391 511.547 123.725 506.739 123.725C494.03 123.725 485.053 114.63 485.053 100.779ZM509.548 111.458C515.174 111.458 519.528 107.538 519.528 100.696C519.528 93.7701 515.174 89.8493 509.548 89.8493C503.741 89.8493 499.568 93.9372 499.568 100.696C499.568 107.454 503.741 111.467 509.548 111.467V111.458Z" fill="#FF3670"/>
<path d="M162.426 50.0448C151.032 49.5959 139.779 52.501 130.304 58.3379C120.828 64.1748 113.624 72.6391 109.739 82.5002C107.067 75.7037 102.796 69.5335 97.2316 64.43C91.9876 59.5969 85.7062 55.8217 78.7878 53.3449C71.8694 50.8682 64.4658 49.7443 57.0489 50.0448C56.7221 56.8659 57.9441 63.6749 60.6372 70.0375C63.3303 76.4002 67.4353 82.177 72.6905 86.9998C75.0655 89.1851 77.656 91.1629 80.4285 92.9079C84.2935 95.3493 87.4521 98.6214 89.6301 102.44C91.808 106.259 92.9395 110.509 92.9262 114.821V130H126.549V114.821C126.536 110.509 127.668 106.259 129.846 102.441C132.024 98.6221 135.182 95.3498 139.046 92.9079C141.82 91.1645 144.411 89.1865 146.784 86.9998C152.04 82.1775 156.146 76.4007 158.839 70.0379C161.532 63.6752 162.754 56.866 162.426 50.0448Z" fill="#FF3670"/>
</g>
<defs>
<clipPath id="clip0_332_693">
<rect width="476" height="80" fill="white" transform="translate(57 50)"/>
</clipPath>
</defs>
</svg>
